Dominus_Funeral/scalable/actions/error-correct.svg

<?xml version="1.0" encoding="UTF-8" standalone="no"?>
<svg
   xmlns:dc="http://purl.org/dc/elements/1.1/"
   xmlns:cc="http://creativecommons.org/ns#"
   xmlns:rdf="http://www.w3.org/1999/02/22-rdf-syntax-ns#"
   xmlns:svg="http://www.w3.org/2000/svg"
   xmlns="http://www.w3.org/2000/svg"
   xmlns:sodipodi="http://sodipodi.sourceforge.net/DTD/sodipodi-0.dtd"
   xmlns:inkscape="http://www.inkscape.org/namespaces/inkscape"
   width="24"
   height="24"
   version="1.1"
   id="svg4"
   sodipodi:docname="error-correct.svg"
   inkscape:version="0.92.4 (5da689c313, 2019-01-14)">
  <metadata
     id="metadata10">
    <rdf:RDF>
      <cc:Work
         rdf:about="">
        <dc:format>image/svg+xml</dc:format>
        <dc:type
           rdf:resource="http://purl.org/dc/dcmitype/StillImage" />
        <dc:title></dc:title>
      </cc:Work>
    </rdf:RDF>
  </metadata>
  <defs
     id="defs8" />
  <sodipodi:namedview
     pagecolor="#ffffff"
     bordercolor="#666666"
     borderopacity="1"
     objecttolerance="10"
     gridtolerance="10"
     guidetolerance="10"
     inkscape:pageopacity="0"
     inkscape:pageshadow="2"
     inkscape:window-width="1112"
     inkscape:window-height="480"
     id="namedview6"
     showgrid="false"
     inkscape:zoom="9.8333333"
     inkscape:cx="1.0677966"
     inkscape:cy="12"
     inkscape:window-x="0"
     inkscape:window-y="25"
     inkscape:window-maximized="0"
     inkscape:current-layer="svg4" />
  <path
     d="M 11.572,2.197 A 5.13,5.13 0 0 0 8.588,3.4 5.143,5.143 0 0 0 6.814,6.57 L 4.316,6.357 7.174,9.748 10.562,6.888 8.052,6.676 a 3.9,3.9 0 0 1 1.329,-2.334 3.94,3.94 0 0 1 4.607,-0.34 l 0.643,-1.045 a 5.187,5.187 0 0 0 -3.059,-0.76 z m 6.065,0.735 a 0.995,0.995 0 0 0 -0.707,0.29 l -1.83,1.83 3.75,3.75 1.83,-1.83 a 1,1 0 0 0 0,-1.413 L 18.344,3.223 A 0.995,0.995 0 0 0 17.637,2.932 Z M 14.039,6.113 2.975,17.178 v 3.75 h 3.75 L 17.789,9.863 Z"
     id="path2"
     inkscape:connector-curvature="0"
     style="fill:#1a1a1a" />
</svg>

<svg xmlns="http://www.w3.org/2000/svg" viewBox="0 0 24 24"><path fill="#1a1a1a" d="M11.57 2.2A5.13 5.13 0 0 0 8.6 3.4 5.14 5.14 0 0 0 6.8 6.57l-2.5-.21 2.86 3.39 3.4-2.86-2.52-.21a3.9 3.9 0 0 1 1.33-2.34 3.94 3.94 0 0 1 4.6-.34l.65-1.04a5.19 5.19 0 0 0-3.06-.76zm6.07.73a1 1 0 0 0-.71.3L15.1 5.04l3.75 3.75 1.83-1.83a1 1 0 0 0 0-1.41l-2.34-2.34a1 1 0 0 0-.7-.29zm-3.6 3.18L2.98 17.18v3.75h3.74L17.8 9.86l-3.75-3.75z"/></svg>
